<?xml version="1.0" encoding="UTF-8"?>
<map version="1.10" tiledversion="1.11.0" orientation="orthogonal" renderorder="right-down" width="18" height="18" tilewidth="8" tileheight="8" infinite="0" nextlayerid="7" nextobjectid="2">
 <editorsettings>
  <export target="ElmHouse.json" format="json"/>
 </editorsettings>
 <tileset firstgid="1" name="CityTiles" tilewidth="8" tileheight="8" tilecount="1440" columns="40">
  <image source="../tilesets/CityTiles.png" width="320" height="288"/>
 </tileset>
 <layer id="1" name="Floor" width="18" height="18">
  <data encoding="csv">
0,0,0,0,0,0,0,0,0,0,0,0,0,0,0,0,0,0,
0,0,0,0,0,0,0,0,0,0,0,0,0,0,0,0,0,0,
0,0,0,0,0,0,0,0,0,0,0,0,0,0,0,0,0,0,
0,0,0,456,456,456,456,456,456,0,0,0,0,0,0,0,0,0,
0,0,0,456,456,456,456,456,456,0,0,0,0,0,0,0,0,0,
0,0,0,456,456,456,456,456,456,456,456,456,456,456,456,456,456,0,
0,456,456,456,456,456,456,456,456,456,456,456,456,456,456,456,456,0,
0,456,456,456,456,0,0,0,0,0,0,0,0,456,456,456,456,0,
0,456,456,456,456,0,0,0,0,0,0,0,0,456,456,456,456,0,
0,456,456,456,456,0,0,0,0,0,0,0,0,456,456,456,456,0,
0,456,456,456,456,0,0,0,0,0,0,0,0,456,456,456,456,0,
0,456,456,456,456,456,456,0,0,0,0,456,456,456,456,456,456,0,
0,456,456,456,456,456,456,456,456,456,456,456,456,456,456,456,456,0,
0,456,456,456,456,456,456,456,456,456,456,456,456,456,456,456,456,0,
0,456,456,456,456,456,456,456,456,456,456,456,456,456,456,456,456,0,
0,456,456,456,456,0,0,0,0,456,456,456,456,456,456,456,456,0,
0,456,456,456,456,0,0,0,0,456,456,456,456,456,456,456,456,0,
0,0,0,0,0,0,0,0,0,0,0,0,0,0,0,0,0,0
</data>
 </layer>
 <layer id="3" name="ExtraWall" width="18" height="18">
  <data encoding="csv">
282,282,282,282,282,282,282,282,282,282,282,282,282,282,282,282,282,282,
282,0,0,0,0,0,0,0,0,0,0,0,0,0,0,0,0,282,
282,0,0,0,0,0,0,0,0,0,0,0,0,0,0,0,0,282,
282,0,0,0,0,0,0,0,0,0,0,0,0,0,0,0,0,282,
282,0,0,0,0,0,0,0,0,0,0,0,0,0,0,0,0,282,
282,0,0,0,0,0,0,0,0,0,0,0,0,0,0,0,0,282,
282,0,0,0,0,0,0,0,0,0,0,0,0,0,0,0,0,282,
282,0,0,0,0,0,0,0,0,0,0,0,0,0,0,0,0,282,
282,0,0,0,0,0,0,0,0,0,0,0,0,0,0,0,0,282,
282,0,0,0,0,0,0,0,0,0,0,0,0,0,0,0,0,282,
282,0,0,0,0,0,0,0,0,0,0,0,0,0,0,0,0,282,
282,0,0,0,0,0,0,0,0,0,0,0,0,0,0,0,0,282,
282,0,0,0,0,0,0,0,0,0,0,0,0,0,0,0,0,282,
282,0,0,0,0,0,0,0,0,0,0,0,0,0,0,0,0,282,
282,0,0,0,0,0,0,0,0,0,0,0,0,0,0,0,0,282,
282,0,0,0,0,0,0,0,0,0,0,0,0,0,0,0,0,282,
282,0,0,0,0,0,0,0,0,0,0,0,0,0,0,0,0,282,
282,282,282,282,282,282,282,282,282,282,282,282,282,282,282,282,282,282
</data>
 </layer>
 <layer id="4" name="Wall" width="18" height="18">
  <data encoding="csv">
0,0,0,0,0,0,0,0,0,0,0,0,0,0,0,0,0,0,
0,244,244,244,244,245,246,244,244,244,244,244,244,323,324,323,324,0,
0,253,254,244,244,244,244,244,244,247,248,244,244,363,364,363,364,0,
0,293,294,0,0,0,0,0,0,287,288,323,324,403,404,403,404,0,
0,333,334,0,0,0,0,0,0,283,284,285,286,443,444,285,286,0,
0,373,374,0,0,0,0,0,0,0,0,0,0,0,0,0,0,0,
0,0,0,0,0,0,0,0,0,0,0,0,0,0,0,0,0,0,
0,0,0,0,0,413,414,255,256,257,258,413,414,0,0,0,0,0,
0,0,0,0,0,453,454,295,296,297,298,453,454,0,0,0,0,0,
0,0,0,0,0,413,414,335,336,337,338,413,414,0,0,0,0,0,
0,0,0,0,0,453,454,375,376,377,378,453,454,0,0,0,0,0,
0,0,0,0,0,0,0,415,416,417,418,0,0,0,0,0,0,0,
0,0,0,0,0,0,0,0,0,0,0,0,0,0,0,0,0,0,
0,0,0,0,0,0,0,0,0,0,0,0,0,0,0,0,0,0,
0,0,0,0,0,0,0,0,0,0,0,0,0,0,0,0,0,0,
0,0,0,0,0,0,0,0,0,0,0,0,0,0,0,0,0,0,
0,0,0,0,0,0,0,0,0,0,0,0,0,0,0,0,0,0,
0,0,0,0,0,0,0,0,0,0,0,0,0,0,0,0,0,0
</data>
 </layer>
 <layer id="5" name="Door" width="18" height="18">
  <data encoding="csv">
0,0,0,0,0,0,0,0,0,0,0,0,0,0,0,0,0,0,
0,0,0,0,0,0,0,0,0,0,0,0,0,0,0,0,0,0,
0,0,0,0,0,0,0,0,0,0,0,0,0,0,0,0,0,0,
0,0,0,0,0,0,0,0,0,0,0,0,0,0,0,0,0,0,
0,0,0,0,0,0,0,0,0,0,0,0,0,0,0,0,0,0,
0,0,0,0,0,0,0,0,0,0,0,0,0,0,0,0,0,0,
0,0,0,0,0,0,0,0,0,0,0,0,0,0,0,0,0,0,
0,0,0,0,0,0,0,0,0,0,0,0,0,0,0,0,0,0,
0,0,0,0,0,0,0,0,0,0,0,0,0,0,0,0,0,0,
0,0,0,0,0,0,0,0,0,0,0,0,0,0,0,0,0,0,
0,0,0,0,0,0,0,0,0,0,0,0,0,0,0,0,0,0,
0,0,0,0,0,0,0,0,0,0,0,0,0,0,0,0,0,0,
0,0,0,0,0,0,0,0,0,0,0,0,0,0,0,0,0,0,
0,0,0,0,0,0,0,0,0,0,0,0,0,0,0,0,0,0,
0,0,0,0,0,0,0,0,0,0,0,0,0,0,0,0,0,0,
0,0,0,0,0,409,410,411,412,0,0,0,0,0,0,0,0,0,
0,0,0,0,0,449,450,451,452,0,0,0,0,0,0,0,0,0,
0,0,0,0,0,0,0,0,0,0,0,0,0,0,0,0,0,0
</data>
 </layer>
 <objectgroup id="6" name="Objects">
  <object id="1" name="man" type="npc" x="120.82" y="70.8681">
   <properties>
    <property name="dialogue_01" value="RICHARD le da mil vueltas a RADEV."/>
   </properties>
   <point/>
  </object>
 </objectgroup>
</map>
