<?xml version="1.0" encoding="UTF-8"?>
<map version="1.10" tiledversion="1.11.0" orientation="orthogonal" renderorder="right-down" width="22" height="26" tilewidth="8" tileheight="8" infinite="0" nextlayerid="7" nextobjectid="3">
 <editorsettings>
  <export target="Lab.json" format="json"/>
 </editorsettings>
 <tileset firstgid="1" name="CityTiles" tilewidth="8" tileheight="8" tilecount="1440" columns="40">
  <image source="../tilesets/CityTiles.png" width="320" height="288"/>
 </tileset>
 <layer id="1" name="Floor" width="22" height="26" locked="1">
  <data encoding="csv">
0,0,0,0,0,0,0,0,0,0,0,0,0,0,0,0,0,0,0,0,0,0,
0,0,0,0,0,0,0,0,0,0,0,0,0,0,0,0,0,0,0,0,0,0,
0,0,0,0,0,0,0,0,219,219,219,219,0,0,0,0,0,0,0,0,0,0,
0,0,0,0,0,0,0,0,219,219,219,219,221,0,0,0,0,0,0,0,0,0,
0,0,0,0,0,0,0,0,219,219,219,219,219,219,219,219,219,219,219,0,0,0,
0,0,0,0,219,219,219,219,219,219,219,219,219,219,219,219,219,219,219,221,221,0,
0,219,219,219,219,219,219,219,219,219,219,219,221,221,221,221,221,221,221,221,221,0,
0,219,219,219,219,219,219,219,219,219,219,219,221,0,0,0,0,0,0,0,0,0,
0,219,219,219,219,219,219,219,219,219,219,219,221,0,0,0,0,0,219,0,0,0,
0,219,219,219,219,219,219,219,219,219,219,219,219,219,219,219,219,219,219,221,221,0,
0,219,219,219,219,219,219,219,219,219,219,219,219,219,219,219,219,219,219,221,221,0,
0,219,219,219,219,219,219,219,219,219,219,219,219,219,219,219,219,221,221,221,221,0,
0,221,221,221,221,221,221,221,219,219,219,219,221,221,221,221,221,221,221,221,221,0,
0,0,0,0,0,0,0,0,219,219,219,219,221,0,0,0,0,0,0,0,0,0,
0,0,0,0,0,0,0,0,219,219,219,219,221,0,0,0,0,0,0,0,0,0,
0,0,0,0,0,0,0,0,219,219,219,219,221,0,0,0,0,0,0,0,0,0,
0,219,219,219,219,219,219,219,219,219,219,219,219,219,219,219,219,219,219,0,0,0,
0,219,219,219,219,219,219,219,219,219,219,219,219,219,219,219,219,219,219,221,221,0,
0,219,219,219,219,219,219,219,219,219,219,219,219,219,219,219,219,219,219,221,221,0,
0,219,219,219,219,219,219,219,219,219,219,219,219,219,219,219,219,219,219,221,221,0,
0,219,219,219,219,219,219,219,219,219,219,219,219,219,219,219,219,219,219,221,221,0,
0,219,219,219,219,219,219,219,219,219,219,219,219,225,225,225,225,225,219,221,221,0,
0,219,219,219,219,225,225,225,225,225,225,225,219,219,219,219,219,225,225,221,221,0,
0,225,225,225,225,221,221,221,221,0,0,225,225,225,225,225,225,225,225,221,221,0,
0,225,225,225,225,225,225,225,225,225,225,225,225,225,225,225,225,225,225,225,225,0,
0,0,0,0,0,0,0,0,0,0,0,0,0,0,0,0,0,0,0,0,0,0
</data>
 </layer>
 <layer id="5" name="ExtraWall" width="22" height="26">
  <data encoding="csv">
282,282,282,282,282,282,282,282,282,282,282,282,282,282,282,282,282,282,282,282,282,282,
282,0,0,0,0,0,0,0,0,0,0,0,0,0,0,0,0,0,0,0,0,282,
282,0,0,0,0,0,0,0,0,0,0,0,0,0,0,0,0,0,0,0,0,282,
282,0,0,0,0,0,0,0,0,0,0,0,0,0,0,0,0,0,0,0,0,282,
282,0,0,0,0,0,0,0,0,0,0,0,0,0,0,0,0,0,0,0,0,282,
282,0,0,0,0,0,0,0,0,0,0,0,0,0,0,0,0,0,0,0,0,282,
282,0,0,0,0,0,0,0,0,0,0,0,0,0,0,0,0,0,0,0,0,282,
282,0,0,0,0,0,0,0,0,0,0,0,0,0,0,0,0,0,0,0,0,282,
282,0,0,0,0,0,0,0,0,0,0,0,0,0,0,0,0,0,0,0,0,282,
282,0,0,0,0,0,0,0,0,0,0,0,0,0,0,0,0,0,0,0,0,282,
282,0,0,0,0,0,0,0,0,0,0,0,0,0,0,0,0,0,0,0,0,282,
282,0,0,0,0,0,0,0,0,0,0,0,0,0,0,0,0,0,0,0,0,282,
282,0,0,0,0,0,0,0,0,0,0,0,0,0,0,0,0,0,0,0,0,282,
282,0,0,0,0,0,0,0,0,0,0,0,0,0,0,0,0,0,0,0,0,282,
282,0,0,0,0,0,0,0,0,0,0,0,0,0,0,0,0,0,0,0,0,282,
282,0,0,0,0,0,0,0,0,0,0,0,0,0,0,0,0,0,0,0,0,282,
282,0,0,0,0,0,0,0,0,0,0,0,0,0,0,0,0,0,0,0,0,282,
282,0,0,0,0,0,0,0,0,0,0,0,0,0,0,0,0,0,0,0,0,282,
282,0,0,0,0,0,0,0,0,0,0,0,0,0,0,0,0,0,0,0,0,282,
282,0,0,0,0,0,0,0,0,0,0,0,0,0,0,0,0,0,0,0,0,282,
282,0,0,0,0,0,0,0,0,0,0,0,0,0,0,0,0,0,0,0,0,282,
282,0,0,0,0,0,0,0,0,0,0,0,0,0,0,0,0,0,0,0,0,282,
282,0,0,0,0,0,0,0,0,0,0,0,0,0,0,0,0,0,0,0,0,282,
282,0,0,0,0,0,0,0,0,0,0,0,0,0,0,0,0,0,0,0,0,282,
282,0,0,0,0,0,0,0,0,0,0,0,0,0,0,0,0,0,0,0,0,282,
282,282,282,282,282,282,282,282,282,282,282,282,282,282,282,282,282,282,282,282,282,282
</data>
 </layer>
 <layer id="3" name="Wall" width="22" height="26">
  <data encoding="csv">
0,0,0,0,0,0,0,0,0,0,0,0,0,0,0,0,0,0,0,0,0,0,
0,20,20,20,20,20,20,20,20,18,19,21,22,12,13,12,13,12,13,12,13,0,
0,60,60,60,60,60,60,60,60,58,59,61,62,52,53,52,53,52,53,52,53,0,
0,94,95,96,97,98,99,100,101,0,0,0,0,92,93,92,93,92,93,92,93,0,
0,134,135,136,137,138,139,140,141,0,0,0,0,132,133,132,133,132,133,132,133,0,
0,174,175,176,177,178,179,180,181,0,0,0,0,0,0,0,0,0,0,0,0,0,
0,214,215,216,217,0,0,0,0,0,0,0,0,0,0,0,0,0,0,0,0,0,
0,0,0,0,0,0,0,0,0,0,0,0,0,102,103,104,104,104,105,106,107,0,
0,0,0,0,0,0,0,0,0,0,0,0,0,142,143,144,144,144,145,146,147,0,
0,0,0,0,0,0,0,0,0,0,0,0,0,182,183,184,184,184,185,0,0,0,
0,0,0,0,0,0,0,0,0,0,0,0,0,0,0,0,0,0,0,0,0,0,
0,0,0,0,0,0,0,0,0,0,0,0,0,0,0,0,0,0,0,0,0,0,
0,0,0,0,0,0,0,0,0,0,0,0,0,0,0,0,0,0,0,0,0,0,
0,12,13,12,13,12,13,12,13,0,0,0,0,12,13,12,13,12,13,12,13,0,
0,52,53,52,53,52,53,52,53,0,0,0,0,52,53,52,53,52,53,52,53,0,
0,92,93,92,93,92,93,92,93,0,0,0,0,92,93,92,93,92,93,92,93,0,
0,132,133,132,133,132,133,132,133,0,0,0,0,132,133,132,133,132,133,132,133,0,
0,0,0,0,0,0,0,0,0,0,0,0,0,0,0,0,0,0,0,0,0,0,
0,0,0,0,0,0,0,0,0,0,0,0,0,0,0,0,0,0,0,0,0,0,
0,0,0,0,0,0,0,0,0,0,0,0,0,0,0,0,0,0,0,0,0,0,
0,0,0,0,0,0,0,0,0,0,0,0,0,0,0,0,0,0,0,0,0,0,
0,0,0,0,0,0,0,0,0,0,0,0,0,0,0,0,0,0,0,0,0,0,
0,0,0,0,0,0,0,0,0,0,0,0,0,0,0,0,0,0,0,0,0,0,
0,0,0,0,0,0,0,0,0,0,0,0,0,0,0,0,0,0,0,0,0,0,
0,0,0,0,0,0,0,0,0,0,0,0,0,0,0,0,0,0,0,0,0,0,
0,0,0,0,0,0,0,0,0,0,0,0,0,0,0,0,0,0,0,0,0,0
</data>
 </layer>
 <layer id="4" name="Door" width="22" height="26">
  <data encoding="csv">
0,0,0,0,0,0,0,0,0,0,0,0,0,0,0,0,0,0,0,0,0,0,
0,0,0,0,0,0,0,0,0,0,0,0,0,0,0,0,0,0,0,0,0,0,
0,0,0,0,0,0,0,0,0,0,0,0,0,0,0,0,0,0,0,0,0,0,
0,0,0,0,0,0,0,0,0,0,0,0,0,0,0,0,0,0,0,0,0,0,
0,0,0,0,0,0,0,0,0,0,0,0,0,0,0,0,0,0,0,0,0,0,
0,0,0,0,0,0,0,0,0,0,0,0,0,0,0,0,0,0,0,0,0,0,
0,0,0,0,0,0,0,0,0,0,0,0,0,0,0,0,0,0,0,0,0,0,
0,0,0,0,0,0,0,0,0,0,0,0,0,0,0,0,0,0,0,0,0,0,
0,0,0,0,0,0,0,0,0,0,0,0,0,0,0,0,0,0,0,0,0,0,
0,0,0,0,0,0,0,0,0,0,0,0,0,0,0,0,0,0,0,0,0,0,
0,0,0,0,0,0,0,0,0,0,0,0,0,0,0,0,0,0,0,0,0,0,
0,0,0,0,0,0,0,0,0,0,0,0,0,0,0,0,0,0,0,0,0,0,
0,0,0,0,0,0,0,0,0,0,0,0,0,0,0,0,0,0,0,0,0,0,
0,0,0,0,0,0,0,0,0,0,0,0,0,0,0,0,0,0,0,0,0,0,
0,0,0,0,0,0,0,0,0,0,0,0,0,0,0,0,0,0,0,0,0,0,
0,0,0,0,0,0,0,0,0,0,0,0,0,0,0,0,0,0,0,0,0,0,
0,0,0,0,0,0,0,0,0,0,0,0,0,0,0,0,0,0,0,0,0,0,
0,0,0,0,0,0,0,0,0,0,0,0,0,0,0,0,0,0,0,0,0,0,
0,0,0,0,0,0,0,0,0,0,0,0,0,0,0,0,0,0,0,0,0,0,
0,0,0,0,0,0,0,0,0,0,0,0,0,0,0,0,0,0,0,0,0,0,
0,0,0,0,0,0,0,0,0,0,0,0,0,0,0,0,0,0,0,0,0,0,
0,0,0,0,0,0,0,0,0,0,0,0,0,0,0,0,0,0,0,0,0,0,
0,0,0,0,0,0,0,0,0,0,0,0,0,0,0,0,0,0,0,0,0,0,
0,0,0,0,0,0,0,0,0,188,189,190,191,0,0,0,0,0,0,0,0,0,
0,0,0,0,0,0,0,0,0,228,229,230,231,0,0,0,0,0,0,0,0,0,
0,0,0,0,0,0,0,0,0,0,0,0,0,0,0,0,0,0,0,0,0,0
</data>
 </layer>
 <objectgroup id="6" name="Objects">
  <object id="1" name="elm" type="npc" x="79.9727" y="64.689">
   <properties>
    <property name="dialogue_01" value="La POKEBALL de encima de la mesa contiene un POKEMON muy especial, puedes llevartela."/>
   </properties>
   <point/>
  </object>
  <object id="2" name="pokeball" type="pokeball" x="131.155" y="67.5325">
   <point/>
  </object>
 </objectgroup>
</map>
