<?xml version="1.0" encoding="UTF-8"?>
<map version="1.10" tiledversion="1.11.0" orientation="orthogonal" renderorder="right-down" width="18" height="18" tilewidth="8" tileheight="8" infinite="0" nextlayerid="7" nextobjectid="2">
 <tileset firstgid="1" name="CityTiles" tilewidth="8" tileheight="8" tilecount="1440" columns="40">
  <image source="../tilesets/CityTiles.png" width="320" height="288"/>
 </tileset>
 <layer id="1" name="Floor" width="18" height="18">
  <data encoding="csv">
0,0,0,0,0,0,0,0,0,0,0,0,0,0,0,0,0,0,
0,0,0,0,0,0,0,0,0,0,0,0,0,0,0,0,0,0,
0,0,0,0,0,0,0,0,0,0,0,0,0,0,0,0,0,0,
0,0,0,0,0,0,0,651,651,651,651,651,651,651,651,0,0,0,
0,0,0,0,0,0,0,651,651,651,651,651,651,651,651,0,0,0,
0,651,651,651,651,651,651,651,651,651,651,651,651,651,651,651,651,0,
0,651,651,651,651,651,651,651,651,651,651,651,651,651,651,651,651,0,
0,651,651,651,651,0,0,0,0,0,0,0,0,651,651,651,651,0,
0,651,651,651,651,0,0,0,0,0,0,0,0,651,651,651,651,0,
0,651,651,651,651,0,0,0,0,0,0,0,0,651,651,651,651,0,
0,651,651,651,651,0,0,0,0,0,0,0,0,651,651,651,651,0,
0,651,651,651,651,651,651,651,651,651,651,651,651,651,651,651,651,0,
0,651,651,651,651,651,651,651,651,651,651,651,651,651,651,651,651,0,
0,0,0,651,651,651,651,651,651,651,651,651,651,651,651,0,0,0,
0,0,0,651,651,651,651,651,651,651,651,651,651,651,651,0,0,0,
0,0,0,651,651,0,0,0,0,651,651,651,651,651,651,0,0,0,
0,0,0,651,651,0,0,0,0,651,651,651,651,651,651,0,0,0,
0,0,0,0,0,0,0,0,0,0,0,0,0,0,0,0,0,0
</data>
 </layer>
 <layer id="3" name="ExtraWall" width="18" height="18">
  <data encoding="csv">
282,282,282,282,282,282,282,282,282,282,282,282,282,282,282,282,282,282,
282,0,0,0,0,0,0,0,0,0,0,0,0,0,0,0,0,282,
282,0,0,0,0,0,0,0,0,0,0,0,0,0,0,0,0,282,
282,0,0,0,0,0,0,0,0,0,0,0,0,0,0,0,0,282,
282,0,0,0,0,0,0,0,0,0,0,0,0,0,0,0,0,282,
282,0,0,0,0,0,0,0,0,0,0,0,0,0,0,0,0,282,
282,0,0,0,0,0,0,0,0,0,0,0,0,0,0,0,0,282,
282,0,0,0,0,0,0,0,0,0,0,0,0,0,0,0,0,282,
282,0,0,0,0,0,0,0,0,0,0,0,0,0,0,0,0,282,
282,0,0,0,0,0,0,0,0,0,0,0,0,0,0,0,0,282,
282,0,0,0,0,0,0,0,0,0,0,0,0,0,0,0,0,282,
282,0,0,0,0,0,0,0,0,0,0,0,0,0,0,0,0,282,
282,0,0,0,0,0,0,0,0,0,0,0,0,0,0,0,0,282,
282,0,0,0,0,0,0,0,0,0,0,0,0,0,0,0,0,282,
282,0,0,0,0,0,0,0,0,0,0,0,0,0,0,0,0,282,
282,0,0,0,0,0,0,0,0,0,0,0,0,0,0,0,0,282,
282,0,0,0,0,0,0,0,0,0,0,0,0,0,0,0,0,282,
282,282,282,282,282,282,282,282,282,282,282,282,282,282,282,282,282,282
</data>
 </layer>
 <layer id="4" name="Wall" width="18" height="18">
  <data encoding="csv">
0,0,0,0,0,0,0,0,0,0,0,0,0,0,0,0,0,0,
0,561,562,561,562,527,527,488,489,527,527,485,486,527,527,527,527,0,
0,601,602,601,602,493,494,528,529,527,527,525,526,527,527,491,492,0,
0,641,642,641,642,533,534,0,0,0,0,0,0,0,0,531,532,0,
0,681,682,693,694,693,694,0,0,0,0,0,0,0,0,693,694,0,
0,0,0,0,0,0,0,0,0,0,0,0,0,0,0,0,0,0,
0,0,0,0,0,0,0,0,0,0,0,0,0,0,0,0,0,0,
0,0,0,0,0,655,656,499,500,501,502,655,656,0,0,0,0,0,
0,0,0,0,0,695,696,579,537,537,538,695,696,0,0,0,0,0,
0,0,0,0,0,655,656,659,660,661,662,655,656,0,0,0,0,0,
0,0,0,0,0,695,696,699,700,701,702,695,696,0,0,0,0,0,
0,0,0,0,0,0,0,0,0,0,0,0,0,0,0,0,0,0,
0,0,0,0,0,0,0,0,0,0,0,0,0,0,0,0,0,0,
0,563,564,0,0,0,0,0,0,0,0,0,0,0,0,563,564,0,
0,603,604,0,0,0,0,0,0,0,0,0,0,0,0,603,604,0,
0,643,644,0,0,0,0,0,0,0,0,0,0,0,0,643,644,0,
0,683,684,0,0,0,0,0,0,0,0,0,0,0,0,683,684,0,
0,0,0,0,0,0,0,0,0,0,0,0,0,0,0,0,0,0
</data>
 </layer>
 <layer id="5" name="Door" width="18" height="18">
  <data encoding="csv">
0,0,0,0,0,0,0,0,0,0,0,0,0,0,0,0,0,0,
0,0,0,0,0,0,0,0,0,0,0,0,0,0,0,0,0,0,
0,0,0,0,0,0,0,0,0,0,0,0,0,0,0,0,0,0,
0,0,0,0,0,0,0,0,0,0,0,0,0,0,0,0,0,0,
0,0,0,0,0,0,0,0,0,0,0,0,0,0,0,0,0,0,
0,0,0,0,0,0,0,0,0,0,0,0,0,0,0,0,0,0,
0,0,0,0,0,0,0,0,0,0,0,0,0,0,0,0,0,0,
0,0,0,0,0,0,0,0,0,0,0,0,0,0,0,0,0,0,
0,0,0,0,0,0,0,0,0,0,0,0,0,0,0,0,0,0,
0,0,0,0,0,0,0,0,0,0,0,0,0,0,0,0,0,0,
0,0,0,0,0,0,0,0,0,0,0,0,0,0,0,0,0,0,
0,0,0,0,0,0,0,0,0,0,0,0,0,0,0,0,0,0,
0,0,0,0,0,0,0,0,0,0,0,0,0,0,0,0,0,0,
0,0,0,0,0,0,0,0,0,0,0,0,0,0,0,0,0,0,
0,0,0,0,0,0,0,0,0,0,0,0,0,0,0,0,0,0,
0,0,0,0,0,647,648,649,650,0,0,0,0,0,0,0,0,0,
0,0,0,0,0,687,688,689,690,0,0,0,0,0,0,0,0,0,
0,0,0,0,0,0,0,0,0,0,0,0,0,0,0,0,0,0
</data>
 </layer>
 <objectgroup id="6" name="Objects">
  <object id="1" name="man" type="npc" x="22.6384" y="69.1456">
   <point/>
  </object>
 </objectgroup>
</map>
