<?xml version="1.0" encoding="UTF-8"?>
<map version="1.10" tiledversion="1.11.0" orientation="orthogonal" renderorder="right-down" width="18" height="14" tilewidth="8" tileheight="8" infinite="0" nextlayerid="6" nextobjectid="1">
 <tileset firstgid="1" name="CityTiles" tilewidth="8" tileheight="8" tilecount="1440" columns="40">
  <image source="../tilesets/CityTiles.png" width="320" height="288"/>
 </tileset>
 <layer id="1" name="Floor" width="18" height="14">
  <data encoding="csv">
0,0,0,0,0,0,0,0,0,0,0,0,0,0,0,0,0,0,
0,0,0,0,0,0,0,0,0,0,0,0,0,0,0,0,0,0,
0,456,456,456,0,0,0,0,0,0,0,0,456,456,456,0,0,0,
0,456,456,456,456,0,0,0,0,0,0,0,456,456,456,456,456,0,
0,456,456,456,456,0,0,0,456,456,456,456,456,456,456,456,456,0,
0,456,456,456,456,456,456,456,456,456,456,456,456,456,456,456,456,0,
0,456,456,456,456,456,456,456,456,456,456,456,456,456,456,456,456,0,
0,456,456,456,456,456,456,456,456,456,456,456,456,456,456,456,456,0,
0,456,456,456,456,456,456,456,456,456,456,456,456,456,456,456,456,0,
0,456,456,456,456,456,456,456,456,0,0,0,456,456,456,456,456,0,
0,456,456,456,456,456,456,456,456,0,0,0,456,456,456,456,456,0,
0,456,456,456,456,456,456,456,456,0,0,0,0,456,456,456,456,0,
0,456,456,456,456,456,456,456,456,456,456,456,456,456,456,456,456,0,
0,0,0,0,0,0,0,0,0,0,0,0,0,0,0,0,0,0
</data>
 </layer>
 <layer id="5" name="ExtraWall" width="18" height="14">
  <data encoding="csv">
456,456,456,456,456,456,456,456,456,456,456,456,456,456,456,456,456,456,
456,0,0,0,0,0,0,0,0,0,0,0,0,0,0,0,0,456,
456,0,0,0,0,0,0,0,0,0,0,0,0,0,0,0,0,456,
456,0,0,0,0,0,0,0,0,0,0,0,0,0,0,0,0,456,
456,0,0,0,0,0,0,0,0,0,0,0,0,0,0,0,0,456,
456,0,0,0,0,0,0,0,0,0,0,0,0,0,0,0,0,456,
456,0,0,0,0,0,0,0,0,0,0,0,0,0,0,0,0,456,
456,0,0,0,0,0,0,0,0,0,0,0,0,0,0,0,0,456,
456,0,0,0,0,0,0,0,0,0,0,0,0,0,0,0,0,456,
456,0,0,0,0,0,0,0,0,0,0,0,0,0,0,0,0,456,
456,0,0,0,0,0,0,0,0,0,0,0,0,0,0,0,0,456,
456,0,0,0,0,0,0,0,0,0,0,0,0,0,0,0,0,456,
456,0,0,0,0,0,0,0,0,0,0,0,0,0,0,0,0,456,
456,456,456,456,456,456,456,456,456,456,456,456,456,456,456,456,456,456
</data>
 </layer>
 <layer id="3" name="Wall" width="18" height="14">
  <data encoding="csv">
0,0,0,0,0,0,0,0,0,0,0,0,0,0,0,0,0,0,
0,85,85,85,244,244,244,244,244,244,244,323,324,85,244,0,0,0,
0,244,244,244,244,253,254,244,244,247,248,363,364,244,244,0,0,0,
0,0,0,0,0,293,294,259,260,287,288,403,404,0,0,0,0,0,
0,0,0,0,0,333,334,299,300,327,328,443,444,0,0,0,0,0,
0,0,0,0,0,373,419,419,374,0,0,0,0,0,0,0,0,0,
0,0,325,326,0,0,0,0,0,0,0,0,0,0,0,0,0,0,
0,0,365,366,0,0,0,0,0,0,0,0,0,0,0,0,0,0,
0,0,405,406,0,0,0,0,0,0,0,0,0,0,0,0,0,0,
0,0,445,446,0,0,0,0,0,255,256,257,258,0,0,0,0,0,
0,0,0,0,0,0,0,0,0,375,376,377,378,0,0,0,0,0,
0,0,0,0,0,0,0,0,0,415,416,417,418,0,0,0,0,0,
0,0,0,0,0,0,0,0,0,0,0,0,0,0,0,0,0,0,
0,0,0,0,0,0,0,0,0,0,0,0,0,0,0,0,0,0
</data>
 </layer>
 <layer id="4" name="Door" width="18" height="14">
  <data encoding="csv">
0,0,0,0,0,0,0,0,0,0,0,0,0,0,0,0,0,0,
0,0,0,0,0,0,0,0,0,0,0,0,0,0,0,339,340,0,
0,0,0,0,0,0,0,0,0,0,0,0,0,0,0,379,380,0,
0,0,0,0,0,0,0,0,0,0,0,0,0,0,0,0,0,0,
0,0,0,0,0,0,0,0,0,0,0,0,0,0,0,0,0,0,
0,0,0,0,0,0,0,0,0,0,0,0,0,0,0,0,0,0,
0,0,0,0,0,0,0,0,0,0,0,0,0,0,0,0,0,0,
0,0,0,0,0,0,0,0,0,0,0,0,0,0,0,0,0,0,
0,0,0,0,0,0,0,0,0,0,0,0,0,0,0,0,0,0,
0,0,0,0,0,0,0,0,0,0,0,0,0,0,0,0,0,0,
0,0,0,0,0,0,0,0,0,0,0,0,0,0,0,0,0,0,
0,0,0,0,0,0,0,0,0,0,0,0,0,0,0,0,0,0,
0,0,0,0,0,0,0,0,0,0,0,0,0,0,0,0,0,0,
0,0,0,0,0,0,0,0,0,0,0,0,0,0,0,0,0,0
</data>
 </layer>
</map>
