<?xml version="1.0" encoding="UTF-8"?>
<map version="1.10" tiledversion="1.11.0" orientation="orthogonal" renderorder="right-down" width="22" height="18" tilewidth="8" tileheight="8" infinite="0" nextlayerid="8" nextobjectid="4">
 <editorsettings>
  <export target="PlayerHouseF0.json" format="json"/>
 </editorsettings>
 <tileset firstgid="1" name="CityTiles" tilewidth="8" tileheight="8" tilecount="1440" columns="40">
  <image source="../tilesets/CityTiles.png" width="320" height="288"/>
 </tileset>
 <layer id="1" name="Floor" width="22" height="18">
  <data encoding="csv">
0,0,0,0,0,0,0,0,0,0,0,0,0,0,0,0,0,0,0,0,0,0,
0,0,0,0,0,0,0,0,0,0,0,0,0,0,0,0,0,0,0,0,0,0,
0,0,0,0,0,0,0,0,0,0,0,0,456,456,456,456,456,456,0,0,0,0,
0,0,0,0,0,0,0,0,0,0,0,0,456,456,456,456,456,456,456,456,456,0,
0,456,456,456,456,456,0,0,456,456,456,456,456,456,456,456,456,456,456,456,456,0,
0,456,456,456,456,456,456,0,456,456,456,456,456,456,456,456,456,456,456,456,456,0,
0,456,456,456,456,456,456,0,0,456,456,0,0,0,0,456,456,456,456,456,456,0,
0,456,456,456,456,456,456,0,0,0,0,0,0,0,0,0,456,456,456,456,456,0,
0,456,456,456,456,456,456,456,0,0,0,0,0,0,0,0,456,456,456,456,456,0,
0,456,456,456,456,456,456,456,456,0,0,0,0,0,0,0,456,456,456,456,456,0,
0,456,456,456,456,456,456,456,456,456,0,0,0,0,456,456,456,456,456,456,456,0,
0,456,456,456,456,456,456,456,456,456,456,456,456,456,456,456,456,456,456,456,456,0,
0,456,456,456,456,456,456,456,456,456,456,456,456,456,456,456,456,456,456,456,456,0,
0,456,456,456,456,456,456,456,456,456,456,456,456,456,456,456,456,456,456,456,456,0,
0,456,456,456,456,456,456,456,456,456,456,456,456,456,456,456,456,456,456,456,456,0,
0,456,456,456,456,456,456,456,456,456,456,456,456,0,0,0,0,456,456,456,456,0,
0,456,456,456,456,456,456,456,456,456,456,456,456,0,0,0,0,456,456,456,456,0,
0,0,0,0,0,0,0,0,0,0,0,0,0,0,0,0,0,0,0,0,0,0
</data>
 </layer>
 <layer id="5" name="ExtraWall" width="22" height="18">
  <data encoding="csv">
282,282,282,282,282,282,282,282,282,282,282,282,282,282,282,282,282,282,282,282,282,282,
282,0,0,0,0,0,0,0,0,0,0,0,0,0,0,0,0,0,0,0,0,282,
282,0,0,0,0,0,0,0,0,0,0,0,0,0,0,0,0,0,0,0,0,282,
282,0,0,0,0,0,0,0,0,0,0,0,0,0,0,0,0,0,0,0,0,282,
282,0,0,0,0,0,0,0,0,0,0,0,0,0,0,0,0,0,0,0,0,282,
282,0,0,0,0,0,0,0,0,0,0,0,0,0,0,0,0,0,0,0,0,282,
282,0,0,0,0,0,0,0,0,0,0,0,0,0,0,0,0,0,0,0,0,282,
282,0,0,0,0,0,0,0,0,0,0,0,0,0,0,0,0,0,0,0,0,282,
282,0,0,0,0,0,0,0,0,0,0,0,0,0,0,0,0,0,0,0,0,282,
282,0,0,0,0,0,0,0,0,0,0,0,0,0,0,0,0,0,0,0,0,282,
282,0,0,0,0,0,0,0,0,0,0,0,0,0,0,0,0,0,0,0,0,282,
282,0,0,0,0,0,0,0,0,0,0,0,0,0,0,0,0,0,0,0,0,282,
282,0,0,0,0,0,0,0,0,0,0,0,0,0,0,0,0,0,0,0,0,282,
282,0,0,0,0,0,0,0,0,0,0,0,0,0,0,0,0,0,0,0,0,282,
282,0,0,0,0,0,0,0,0,0,0,0,0,0,0,0,0,0,0,0,0,282,
282,0,0,0,0,0,0,0,0,0,0,0,0,0,0,0,0,0,0,0,0,282,
282,0,0,0,0,0,0,0,0,0,0,0,0,0,0,0,0,0,0,0,0,282,
282,282,282,282,282,282,282,282,282,282,282,282,282,282,282,282,282,282,282,282,282,282
</data>
 </layer>
 <layer id="3" name="Wall" width="22" height="18">
  <data encoding="csv">
0,0,0,0,0,0,0,0,0,0,0,0,0,0,0,0,0,0,0,0,0,0,
0,86,89,89,87,244,244,48,88,244,85,85,85,85,85,85,85,85,244,0,0,0,
0,244,244,244,244,367,368,48,88,247,248,244,244,244,244,244,244,244,244,0,0,0,
0,329,330,331,332,407,408,48,88,287,288,323,324,0,0,0,0,0,0,0,0,0,
0,369,370,371,372,447,448,48,88,327,328,285,286,0,0,0,0,0,0,0,0,0,
0,0,0,0,0,0,0,48,88,0,0,0,0,0,0,0,0,0,0,0,0,0,
0,0,0,0,0,0,0,86,87,0,0,255,256,257,258,0,0,0,0,0,0,0,
0,0,0,0,0,0,0,244,244,413,414,295,296,297,298,413,414,0,0,0,0,0,
0,0,0,0,0,0,0,244,244,453,454,335,336,337,338,453,454,0,0,0,0,0,
0,0,0,0,0,0,0,0,0,413,414,375,376,377,378,413,414,0,0,0,0,0,
0,0,0,0,0,0,0,0,0,453,454,415,416,417,418,453,454,0,0,0,0,0,
0,0,0,0,0,0,0,0,0,0,0,0,0,0,0,0,0,0,0,0,0,0,
0,0,0,0,0,0,0,0,0,0,0,0,0,0,0,0,0,0,0,0,0,0,
0,0,0,0,0,0,0,0,0,0,0,0,0,0,0,0,0,0,0,0,0,0,
0,0,0,0,0,0,0,0,0,0,0,0,0,0,0,0,0,0,0,0,0,0,
0,0,0,0,0,0,0,0,0,0,0,0,0,0,0,0,0,0,0,0,0,0,
0,0,0,0,0,0,0,0,0,0,0,0,0,0,0,0,0,0,0,0,0,0,
0,0,0,0,0,0,0,0,0,0,0,0,0,0,0,0,0,0,0,0,0,0
</data>
 </layer>
 <layer id="4" name="DoorDown" width="22" height="18">
  <data encoding="csv">
0,0,0,0,0,0,0,0,0,0,0,0,0,0,0,0,0,0,0,0,0,0,
0,0,0,0,0,0,0,0,0,0,0,0,0,0,0,0,0,0,0,0,0,0,
0,0,0,0,0,0,0,0,0,0,0,0,0,0,0,0,0,0,0,0,0,0,
0,0,0,0,0,0,0,0,0,0,0,0,0,0,0,0,0,0,0,0,0,0,
0,0,0,0,0,0,0,0,0,0,0,0,0,0,0,0,0,0,0,0,0,0,
0,0,0,0,0,0,0,0,0,0,0,0,0,0,0,0,0,0,0,0,0,0,
0,0,0,0,0,0,0,0,0,0,0,0,0,0,0,0,0,0,0,0,0,0,
0,0,0,0,0,0,0,0,0,0,0,0,0,0,0,0,0,0,0,0,0,0,
0,0,0,0,0,0,0,0,0,0,0,0,0,0,0,0,0,0,0,0,0,0,
0,0,0,0,0,0,0,0,0,0,0,0,0,0,0,0,0,0,0,0,0,0,
0,0,0,0,0,0,0,0,0,0,0,0,0,0,0,0,0,0,0,0,0,0,
0,0,0,0,0,0,0,0,0,0,0,0,0,0,0,0,0,0,0,0,0,0,
0,0,0,0,0,0,0,0,0,0,0,0,0,0,0,0,0,0,0,0,0,0,
0,0,0,0,0,0,0,0,0,0,0,0,0,0,0,0,0,0,0,0,0,0,
0,0,0,0,0,0,0,0,0,0,0,0,0,0,0,0,0,0,0,0,0,0,
0,0,0,0,0,0,0,0,0,0,0,0,0,409,410,411,412,0,0,0,0,0,
0,0,0,0,0,0,0,0,0,0,0,0,0,449,450,451,452,0,0,0,0,0,
0,0,0,0,0,0,0,0,0,0,0,0,0,0,0,0,0,0,0,0,0,0
</data>
 </layer>
 <layer id="6" name="DoorTop" width="22" height="18">
  <data encoding="csv">
0,0,0,0,0,0,0,0,0,0,0,0,0,0,0,0,0,0,0,0,0,0,
0,0,0,0,0,0,0,0,0,0,0,0,0,0,0,0,0,0,0,251,252,0,
0,0,0,0,0,0,0,0,0,0,0,0,0,0,0,0,0,0,0,291,292,0,
0,0,0,0,0,0,0,0,0,0,0,0,0,0,0,0,0,0,0,0,0,0,
0,0,0,0,0,0,0,0,0,0,0,0,0,0,0,0,0,0,0,0,0,0,
0,0,0,0,0,0,0,0,0,0,0,0,0,0,0,0,0,0,0,0,0,0,
0,0,0,0,0,0,0,0,0,0,0,0,0,0,0,0,0,0,0,0,0,0,
0,0,0,0,0,0,0,0,0,0,0,0,0,0,0,0,0,0,0,0,0,0,
0,0,0,0,0,0,0,0,0,0,0,0,0,0,0,0,0,0,0,0,0,0,
0,0,0,0,0,0,0,0,0,0,0,0,0,0,0,0,0,0,0,0,0,0,
0,0,0,0,0,0,0,0,0,0,0,0,0,0,0,0,0,0,0,0,0,0,
0,0,0,0,0,0,0,0,0,0,0,0,0,0,0,0,0,0,0,0,0,0,
0,0,0,0,0,0,0,0,0,0,0,0,0,0,0,0,0,0,0,0,0,0,
0,0,0,0,0,0,0,0,0,0,0,0,0,0,0,0,0,0,0,0,0,0,
0,0,0,0,0,0,0,0,0,0,0,0,0,0,0,0,0,0,0,0,0,0,
0,0,0,0,0,0,0,0,0,0,0,0,0,0,0,0,0,0,0,0,0,0,
0,0,0,0,0,0,0,0,0,0,0,0,0,0,0,0,0,0,0,0,0,0,
0,0,0,0,0,0,0,0,0,0,0,0,0,0,0,0,0,0,0,0,0,0
</data>
 </layer>
 <objectgroup id="7" name="Objects">
  <object id="1" name="mother" type="npc" x="31.4969" y="72.5906">
   <point/>
  </object>
 </objectgroup>
</map>
